remix/Logos/messenger-fill.svg

<svg viewBox="0 0 24 24" fill="currentColor" xmlns="http://www.w3.org/2000/svg"><path d="M12.001 2C17.6345 2 22.001 6.1265 22.001 11.7C22.001 17.2735 17.6345 21.4 12.001 21.4C11.0233 21.4023 10.0497 21.273 9.10648 21.0155C8.92907 20.9668 8.7403 20.9808 8.57198 21.055L6.58748 21.931C6.34398 22.0386 6.06291 22.018 5.83768 21.8761C5.61244 21.7342 5.47254 21.4896 5.46448 21.2235L5.40998 19.4445C5.40257 19.2257 5.30547 19.0196 5.14148 18.8745C3.19598 17.1345 2.00098 14.6155 2.00098 11.7C2.00098 6.1265 6.36748 2 12.001 2ZM5.99598 14.5365C5.71398 14.984 6.26398 15.488 6.68498 15.1685L9.84048 12.7735C10.0543 12.6122 10.3491 12.6122 10.563 12.7735L12.8995 14.5235C13.2346 14.7749 13.6596 14.8747 14.0716 14.7987C14.4836 14.7227 14.8451 14.4779 15.0685 14.1235L18.006 9.4635C18.288 9.016 17.738 8.512 17.317 8.8315L14.1615 11.2265C13.9476 11.3878 13.6528 11.3878 13.439 11.2265L11.1025 9.4765C10.7673 9.22511 10.3423 9.12532 9.93034 9.2013C9.51834 9.27728 9.15689 9.5221 8.93348 9.8765L5.99598 14.5365Z"/></svg>

<svg viewBox="0 0 24 24" xmlns="http://www.w3.org/2000/svg"><path fill="none" d="M0 0h24v24H0Z"/><path d="M12 2c5.634 0 10 4.12 10 9.7 0 5.573-4.366 9.7-10 9.7v0c-.98 0-1.96-.13-2.9-.39v0c-.18-.05-.37-.04-.54.03l-1.984.87v0c-.41.17-.88-.01-1.06-.41 -.05-.1-.07-.2-.07-.3l-.06-1.78v0c-.01-.22-.11-.43-.27-.57 -1.95-1.74-3.15-4.26-3.15-7.18 0-5.573 4.36-9.7 10-9.7ZM5.995 14.53c-.29.44.26.95.68.63l3.15-2.394v0c.21-.17.5-.17.72-.001l2.33 1.75v0c.66.49 1.6.36 2.1-.3 .02-.04.04-.07.06-.11l2.93-4.66c.28-.45-.27-.952-.69-.64l-3.16 2.39v0c-.22.16-.51.16-.73 0l-2.34-1.75v0c-.67-.5-1.61-.37-2.11.29 -.03.03-.05.06-.07.1l-2.94 4.66Z"/></svg>
